X: 1
T: Kes\"an tullessa
T: Kes\"a tullee
T: the Coming of Summer
C: Konsta Jylh\"a
R: waltz
O: J.P.Nystr\"om
D:
B:
Z: John Chambers <jc:trillian.mit.edu>
N:
M: 3/4
L: 1/8
K: A
|: EA \
| "A"c3 c c2- | c2 cB AF | E3 E E2- | E2 CD EC | A3 A A2- | A2 AG FE | "E7"G6- | G2 GA Bc |
| "Bm"d3 d d2- | d2 dc BA | "E7"G3 G G2- | G2 EF GA | B3 B B2 | ~B2 A2 B2 | "A"c6- | c4 EA |
| "A"c3 c c2- | c2 cB AF | E3 E E2- | E2 CD EF | A3 A A2 | "A7"A2 B2 c2 | "D"d6- | d4 Bc |
| "Bm"d3 d d2- | "E7"d2 dc BA | "A"c3 c c2- | "F#m"c2 BA GF | "E7"GF E2 F2 | D4 B,2 | "A"A,6- | "fine"A,2 z2 :| [K:Am]
|: E2 \
| "Am"E3 cBc | E3 cBc | "Dm"d4 c2 | "E7"B4 E2 | B2 B2 c2 | d2 c2 B2 | "Am"c4 d2 | e3 c A2 |
| "Dm"f3 d B2 | "G7"g4 ~f2 | "C"e6- | "E7"e4 d2 \
|1 "Am"c2 B2 A2 | "G7"G4 F2 | "C"E6- | "E7"E4 :|2 "Am"c2 e2 c2 | "E7"d2 ~c2 B2 | "Am"A6- | A2 z2 |]

